packages/core/src/svgs/tokens/mono/GAMMA.svg

<svg width="24" height="24" viewBox="0 0 24 24" fill="none" xmlns="http://www.w3.org/2000/svg">
<path d="M12.625 10.3812L21.025 2L21.9 2.875L13.4812 11.3937L22 11.3749V12.625H13.4812L19.5 18.6062L18.625 19.4812L12.6313 13.3562V21.3812H11.3812V13.3625L2.86874 22L2 21.125L10.5187 12.625H2V11.3749L10.5187 11.3937L4.81249 5.59373L5.68749 4.71873L11.3749 10.3812V2H12.625V10.3812Z" fill="white"/>
</svg>

<svg xmlns="http://www.w3.org/2000/svg" width="24" height="24" fill="none" viewBox="0 0 24 24">
    <path fill="#fff" d="M12.625 10.381 21.025 2l.875.875-8.419 8.519 8.519-.02v1.251h-8.519l6.019 5.981-.875.875-5.994-6.125v8.025h-1.25v-8.018L2.87 22 2 21.125l8.519-8.5H2v-1.25l8.519.019-5.707-5.8.875-.875 5.688 5.662V2h1.25z"/>
</svg>
